X: 613
T: Mazur – Co? tak oczka zap?aka?a
C: Anonim
L: 1/8
M: 3/8
N: Derived from pl-sa--600-a-ix-80--001_anonim--mazur-cos-tak-oczka-zaplakala.krn
%%staves {1 2}
V: 1 clef=treble
V: 2 clef=bass
K: F
[V:1] A/G/ FF | 
[V:2] F,[A,C][A,C] | 
[V:1] F/G/ AA | 
[V:2] F,[A,C][A,C] | 
[V:1] B/A/ GF | 
[V:2] C,[G,B,][G,B,] | 
[V:1] E/D/ EC | 
[V:2] C,[G,B,][G,B,] | 
[V:1] A/G/ FF | 
[V:2] F,[A,C][A,C] | 
[V:1] F/G/ AA | 
[V:2] F,[A,C][A,C] | 
[V:1] B/A/ GF | 
[V:2] C,[G,B,][G,B,] | 
[V:1] E/D/ EC ||  
[V:2] C,[G,B,][G,B,] ||  
[V:1] C>E G/c/ | 
[V:2] C,[G,B,][G,B,] | 
[V:1] A/F/ A/F/ A/c/ | 
[V:2] F,[A,C][A,C] | 
[V:1] B/A/ G/A/ B/c/ | 
[V:2] C,[G,B,][G,B,] | 
[V:1] AF z | 
[V:2] F,[A,C][A,C] | 
[V:1] C>E G/B/ | 
[V:2] C,[G,B,][G,B,] | 
[V:1] A/F/ A/F/ A/c/ | 
[V:2] F,[A,C][A,C] | 
[V:1] B/A/ G/A/ B/E/ | 
[V:2] C,[G,B,][G,B,] | 
[V:1] GF z | 
[V:2] F, [A,C] z | 

